static/mining/MyRewards.svg

<svg width="65.808mm" height="16.379mm" version="1.1" viewBox="0 0 65.808 16.379" xmlns="http://www.w3.org/2000/svg">
 <defs>
  <filter id="filter0_d-3" x=".36816" y=".38403" width="249.03" height="71.216" color-interpolation-filters="sRGB" filterUnits="userSpaceOnUse">
   <feFlood flood-opacity="0" result="BackgroundImageFix"/>
   <feColorMatrix in="SourceAlpha" values="0 0 0 0 0 0 0 0 0 0 0 0 0 0 0 0 0 0 127 0"/>
   <feOffset dy="3"/>
   <feGaussianBlur stdDeviation="6.5"/>
   <feColorMatrix values="0 0 0 0 0.0183963 0 0 0 0 0.0167002 0 0 0 0 0.0387499 0 0 0 0.13 0"/>
   <feBlend in2="BackgroundImageFix" result="effect1_dropShadow"/>
   <feBlend in="SourceGraphic" in2="effect1_dropShadow" result="shape"/>
  </filter>
  <linearGradient id="paint0_linear-6" x1="120.5" x2="120.5" y2="59" gradientUnits="userSpaceOnUse">
   <stop stop-color="#606EA3" offset="0"/>
   <stop stop-color="#4E4376" offset="1"/>
  </linearGradient>
 </defs>
 <g transform="translate(-17.281 -124.77)">
  <g transform="matrix(.26458 0 0 .26458 17.254 124.08)" fill="none">
   <g filter="url(#filter0_d-3)" opacity=".69">
    <path d="m45.192 20.32c3.2 0 5.728 0.928 7.584 2.784 1.888 1.856 2.832 4.608 2.832 8.256v14.64h-4.608v-14.112c0-2.464-0.576-4.32-1.728-5.568-1.12-1.248-2.736-1.872-4.848-1.872-2.336 0-4.192 0.736-5.568 2.208-1.376 1.44-2.064 3.52-2.064 6.24v13.104h-4.608v-14.112c0-2.464-0.576-4.32-1.728-5.568-1.12-1.248-2.736-1.872-4.848-1.872-2.336 0-4.192 0.736-5.568 2.208-1.376 1.44-2.064 3.52-2.064 6.24v13.104h-4.608v-25.44h4.416v3.792c0.928-1.312 2.144-2.304 3.648-2.976 1.504-0.704 3.216-1.056 5.136-1.056 1.984 0 3.744 0.4 5.28 1.2s2.72 1.968 3.552 3.504c0.96-1.472 2.288-2.624 3.984-3.456 1.728-0.832 3.664-1.248 5.808-1.248zm34.698 0.24-12.336 27.984c-1.088 2.592-2.368 4.416-3.84 5.472-1.44 1.056-3.184 1.584-5.232 1.584-1.248 0-2.464-0.208-3.648-0.624-1.152-0.384-2.112-0.96-2.88-1.728l1.968-3.456c1.312 1.248 2.832 1.872 4.56 1.872 1.12 0 2.048-0.304 2.784-0.912 0.768-0.576 1.456-1.584 2.064-3.024l0.816-1.776-11.232-25.392h4.8l8.88 20.352 8.784-20.352zm9.1271 4.272c0.8-1.472 1.984-2.592 3.552-3.36s3.472-1.152 5.712-1.152v4.464c-0.256-0.032-0.608-0.048-1.056-0.048-2.496 0-4.464 0.752-5.904 2.256-1.408 1.472-2.112 3.584-2.112 6.336v12.672h-4.608v-25.44h4.416zm31.461 8.592c0 0.352-0.032 0.816-0.096 1.392h-20.64c0.2879 2.24 1.2639 4.048 2.9279 5.424 1.696 1.344 3.792 2.016 6.288 2.016 3.04 0 5.488-1.024 7.344-3.072l2.544 2.976c-1.152 1.344-2.592 2.368-4.32 3.072-1.696 0.704-3.6 1.056-5.712 1.056-2.688 0-5.072-0.544-7.152-1.632-2.0799-1.12-3.6959-2.672-4.8479-4.656-1.12-1.984-1.68-4.224-1.68-6.72 0-2.464 0.544-4.688 1.632-6.672 1.12-1.984 2.64-3.52 4.5599-4.608 1.952-1.12 4.144-1.68 6.576-1.68s4.592 0.56 6.48 1.68c1.92 1.088 3.408 2.624 4.464 4.608 1.088 1.984 1.632 4.256 1.632 6.816zm-12.576-9.216c-2.208 0-4.064 0.672-5.568 2.016-1.472 1.344-2.3359 3.104-2.5919 5.28h16.32c-0.256-2.144-1.136-3.888-2.64-5.232-1.472-1.376-3.312-2.064-5.52-2.064zm50.762-3.648-9.504 25.44h-4.416l-7.344-19.296-7.44 19.296h-4.416l-9.456-25.44h4.368l7.392 20.256 7.68-20.256h3.888l7.536 20.352 7.584-20.352zm6.903-0.24c3.52 0 6.208 0.864 8.064 2.592 1.888 1.728 2.832 4.304 2.832 7.728v15.36h-4.368v-3.36c-0.768 1.184-1.872 2.096-3.312 2.736-1.408 0.608-3.088 0.912-5.04 0.912-2.848 0-5.136-0.688-6.864-2.064-1.696-1.376-2.544-3.184-2.544-5.424s0.816-4.032 2.448-5.376c1.632-1.376 4.224-2.064 7.776-2.064h7.296v-0.912c0-1.984-0.576-3.504-1.728-4.56s-2.848-1.584-5.088-1.584c-1.504 0-2.976 0.256-4.416 0.768-1.44 0.48-2.656 1.136-3.648 1.968l-1.92-3.456c1.312-1.056 2.88-1.856 4.704-2.4 1.824-0.576 3.76-0.864 5.808-0.864zm-1.056 22.416c1.76 0 3.28-0.384 4.56-1.152 1.28-0.8 2.208-1.92 2.784-3.36v-3.552h-7.104c-3.904 0-5.856 1.312-5.856 3.936 0 1.28 0.496 2.288 1.488 3.024s2.368 1.104 4.128 1.104zm18.656-17.904c0.8-1.472 1.984-2.592 3.552-3.36s3.472-1.152 5.712-1.152v4.464c-0.256-0.032-0.608-0.048-1.056-0.048-2.496 0-4.464 0.752-5.904 2.256-1.408 1.472-2.112 3.584-2.112 6.336v12.672h-4.608v-25.44h4.416zm32.469-14.448v35.616h-4.416v-4.032c-1.024 1.408-2.32 2.48-3.888 3.216s-3.296 1.104-5.184 1.104c-2.464 0-4.672-0.544-6.624-1.632s-3.488-2.608-4.608-4.56c-1.088-1.984-1.632-4.256-1.632-6.816s0.544-4.816 1.632-6.768c1.12-1.952 2.656-3.472 4.608-4.56s4.16-1.632 6.624-1.632c1.824 0 3.504 0.352 5.04 1.056 1.536 0.672 2.816 1.68 3.84 3.024v-14.016zm-13.104 31.872c1.6 0 3.056-0.368 4.368-1.104 1.312-0.768 2.336-1.824 3.072-3.168 0.736-1.376 1.104-2.944 1.104-4.704s-0.368-3.312-1.104-4.656c-0.736-1.376-1.76-2.432-3.072-3.168s-2.768-1.104-4.368-1.104c-1.632 0-3.104 0.368-4.416 1.104-1.28 0.736-2.304 1.792-3.072 3.168-0.736 1.344-1.104 2.896-1.104 4.656s0.368 3.328 1.104 4.704c0.768 1.344 1.792 2.4 3.072 3.168 1.312 0.736 2.784 1.104 4.416 1.104zm22.878 4.032c-2.08 0-4.08-0.272-6-0.816-1.92-0.576-3.424-1.296-4.512-2.16l1.92-3.648c1.12 0.8 2.48 1.44 4.08 1.92s3.216 0.72 4.848 0.72c4.032 0 6.048-1.152 6.048-3.456 0-0.768-0.272-1.376-0.816-1.824s-1.232-0.768-2.064-0.96c-0.8-0.224-1.952-0.464-3.456-0.72-2.048-0.32-3.728-0.688-5.04-1.104-1.28-0.416-2.384-1.12-3.312-2.112s-1.392-2.384-1.392-4.176c0-2.304 0.96-4.144 2.88-5.52 1.92-1.408 4.496-2.112 7.728-2.112 1.696 0 3.392 0.208 5.088 0.624s3.088 0.976 4.176 1.68l-1.968 3.648c-2.08-1.344-4.528-2.016-7.344-2.016-1.952 0-3.44 0.32-4.464 0.96s-1.536 1.488-1.536 2.544c0 0.832 0.288 1.488 0.864 1.968s1.28 0.832 2.112 1.056c0.864 0.224 2.064 0.48 3.6 0.768 2.048 0.352 3.696 0.736 4.944 1.152 1.28 0.384 2.368 1.056 3.264 2.016s1.344 2.304 1.344 4.032c0 2.304-0.992 4.144-2.976 5.52-1.952 1.344-4.624 2.016-8.016 2.016z" fill="url(#paint0_linear-6)"/>
   </g>
  </g>
 </g>
</svg>

<svg width="250" height="72" viewBox="0 0 250 72" fill="none" xmlns="http://www.w3.org/2000/svg">
<g opacity="0.69" filter="url(#filter0_d)">
<path d="M45.192 20.32C48.392 20.32 50.92 21.248 52.776 23.104C54.664 24.96 55.608 27.712 55.608 31.36V46H51V31.888C51 29.424 50.424 27.568 49.272 26.32C48.152 25.072 46.536 24.448 44.424 24.448C42.088 24.448 40.232 25.184 38.856 26.656C37.48 28.096 36.792 30.176 36.792 32.896V46H32.184V31.888C32.184 29.424 31.608 27.568 30.456 26.32C29.336 25.072 27.72 24.448 25.608 24.448C23.272 24.448 21.416 25.184 20.04 26.656C18.664 28.096 17.976 30.176 17.976 32.896V46H13.368V20.56H17.784V24.352C18.712 23.04 19.928 22.048 21.432 21.376C22.936 20.672 24.648 20.32 26.568 20.32C28.552 20.32 30.312 20.72 31.848 21.52C33.384 22.32 34.568 23.488 35.4 25.024C36.36 23.552 37.688 22.4 39.384 21.568C41.112 20.736 43.048 20.32 45.192 20.32ZM79.89 20.56L67.554 48.544C66.466 51.136 65.186 52.96 63.714 54.016C62.274 55.072 60.53 55.6 58.482 55.6C57.234 55.6 56.018 55.392 54.834 54.976C53.682 54.592 52.722 54.016 51.954 53.248L53.922 49.792C55.234 51.04 56.754 51.664 58.482 51.664C59.602 51.664 60.53 51.36 61.266 50.752C62.034 50.176 62.722 49.168 63.33 47.728L64.146 45.952L52.914 20.56H57.714L66.594 40.912L75.378 20.56H79.89ZM89.0171 24.832C89.8171 23.36 91.0011 22.24 92.5691 21.472C94.1371 20.704 96.0411 20.32 98.2811 20.32V24.784C98.0251 24.752 97.6731 24.736 97.2251 24.736C94.7291 24.736 92.7611 25.488 91.3211 26.992C89.9131 28.464 89.2091 30.576 89.2091 33.328V46H84.6011V20.56H89.0171V24.832ZM120.478 33.424C120.478 33.776 120.446 34.24 120.382 34.816H99.7421C100.03 37.056 101.006 38.864 102.67 40.24C104.366 41.584 106.462 42.256 108.958 42.256C111.998 42.256 114.446 41.232 116.302 39.184L118.846 42.16C117.694 43.504 116.254 44.528 114.526 45.232C112.83 45.936 110.926 46.288 108.814 46.288C106.126 46.288 103.742 45.744 101.662 44.656C99.5821 43.536 97.9661 41.984 96.8141 40C95.6941 38.016 95.1341 35.776 95.1341 33.28C95.1341 30.816 95.6781 28.592 96.7661 26.608C97.8861 24.624 99.4061 23.088 101.326 22C103.278 20.88 105.47 20.32 107.902 20.32C110.334 20.32 112.494 20.88 114.382 22C116.302 23.088 117.79 24.624 118.846 26.608C119.934 28.592 120.478 30.864 120.478 33.424ZM107.902 24.208C105.694 24.208 103.838 24.88 102.334 26.224C100.862 27.568 99.9981 29.328 99.7421 31.504H116.062C115.806 29.36 114.926 27.616 113.422 26.272C111.95 24.896 110.11 24.208 107.902 24.208ZM158.664 20.56L149.16 46H144.744L137.4 26.704L129.96 46H125.544L116.088 20.56H120.456L127.848 40.816L135.528 20.56H139.416L146.952 40.912L154.536 20.56H158.664ZM165.567 20.32C169.087 20.32 171.775 21.184 173.631 22.912C175.519 24.64 176.463 27.216 176.463 30.64V46H172.095V42.64C171.327 43.824 170.223 44.736 168.783 45.376C167.375 45.984 165.695 46.288 163.743 46.288C160.895 46.288 158.607 45.6 156.879 44.224C155.183 42.848 154.335 41.04 154.335 38.8C154.335 36.56 155.151 34.768 156.783 33.424C158.415 32.048 161.007 31.36 164.559 31.36H171.855V30.448C171.855 28.464 171.279 26.944 170.127 25.888C168.975 24.832 167.279 24.304 165.039 24.304C163.535 24.304 162.063 24.56 160.623 25.072C159.183 25.552 157.967 26.208 156.975 27.04L155.055 23.584C156.367 22.528 157.935 21.728 159.759 21.184C161.583 20.608 163.519 20.32 165.567 20.32ZM164.511 42.736C166.271 42.736 167.791 42.352 169.071 41.584C170.351 40.784 171.279 39.664 171.855 38.224V34.672H164.751C160.847 34.672 158.895 35.984 158.895 38.608C158.895 39.888 159.391 40.896 160.383 41.632C161.375 42.368 162.751 42.736 164.511 42.736ZM183.167 24.832C183.967 23.36 185.151 22.24 186.719 21.472C188.287 20.704 190.191 20.32 192.431 20.32V24.784C192.175 24.752 191.823 24.736 191.375 24.736C188.879 24.736 186.911 25.488 185.471 26.992C184.063 28.464 183.359 30.576 183.359 33.328V46H178.751V20.56H183.167V24.832ZM215.636 10.384V46H211.22V41.968C210.196 43.376 208.9 44.448 207.332 45.184C205.764 45.92 204.036 46.288 202.148 46.288C199.684 46.288 197.476 45.744 195.524 44.656C193.572 43.568 192.036 42.048 190.916 40.096C189.828 38.112 189.284 35.84 189.284 33.28C189.284 30.72 189.828 28.464 190.916 26.512C192.036 24.56 193.572 23.04 195.524 21.952C197.476 20.864 199.684 20.32 202.148 20.32C203.972 20.32 205.652 20.672 207.188 21.376C208.724 22.048 210.004 23.056 211.028 24.4V10.384H215.636ZM202.532 42.256C204.132 42.256 205.588 41.888 206.9 41.152C208.212 40.384 209.236 39.328 209.972 37.984C210.708 36.608 211.076 35.04 211.076 33.28C211.076 31.52 210.708 29.968 209.972 28.624C209.236 27.248 208.212 26.192 206.9 25.456C205.588 24.72 204.132 24.352 202.532 24.352C200.9 24.352 199.428 24.72 198.116 25.456C196.836 26.192 195.812 27.248 195.044 28.624C194.308 29.968 193.94 31.52 193.94 33.28C193.94 35.04 194.308 36.608 195.044 37.984C195.812 39.328 196.836 40.384 198.116 41.152C199.428 41.888 200.9 42.256 202.532 42.256ZM225.41 46.288C223.33 46.288 221.33 46.016 219.41 45.472C217.49 44.896 215.986 44.176 214.898 43.312L216.818 39.664C217.938 40.464 219.298 41.104 220.898 41.584C222.498 42.064 224.114 42.304 225.746 42.304C229.778 42.304 231.794 41.152 231.794 38.848C231.794 38.08 231.522 37.472 230.978 37.024C230.434 36.576 229.746 36.256 228.914 36.064C228.114 35.84 226.962 35.6 225.458 35.344C223.41 35.024 221.73 34.656 220.418 34.24C219.138 33.824 218.034 33.12 217.106 32.128C216.178 31.136 215.714 29.744 215.714 27.952C215.714 25.648 216.674 23.808 218.594 22.432C220.514 21.024 223.09 20.32 226.322 20.32C228.018 20.32 229.714 20.528 231.41 20.944C233.106 21.36 234.498 21.92 235.586 22.624L233.618 26.272C231.538 24.928 229.09 24.256 226.274 24.256C224.322 24.256 222.834 24.576 221.81 25.216C220.786 25.856 220.274 26.704 220.274 27.76C220.274 28.592 220.562 29.248 221.138 29.728C221.714 30.208 222.418 30.56 223.25 30.784C224.114 31.008 225.314 31.264 226.85 31.552C228.898 31.904 230.546 32.288 231.794 32.704C233.074 33.088 234.162 33.76 235.058 34.72C235.954 35.68 236.402 37.024 236.402 38.752C236.402 41.056 235.41 42.896 233.426 44.272C231.474 45.616 228.802 46.288 225.41 46.288Z" fill="url(#paint0_linear)"/>
</g>
<defs>
<filter id="filter0_d" x="0.368164" y="0.384033" width="249.034" height="71.216" filterUnits="userSpaceOnUse" color-interpolation-filters="sRGB">
<feFlood flood-opacity="0" result="BackgroundImageFix"/>
<feColorMatrix in="SourceAlpha" type="matrix" values="0 0 0 0 0 0 0 0 0 0 0 0 0 0 0 0 0 0 127 0"/>
<feOffset dy="3"/>
<feGaussianBlur stdDeviation="6.5"/>
<feColorMatrix type="matrix" values="0 0 0 0 0.0183963 0 0 0 0 0.0167002 0 0 0 0 0.0387499 0 0 0 0.13 0"/>
<feBlend mode="normal" in2="BackgroundImageFix" result="effect1_dropShadow"/>
<feBlend mode="normal" in="SourceGraphic" in2="effect1_dropShadow" result="shape"/>
</filter>
<linearGradient id="paint0_linear" x1="120.5" y1="0" x2="120.5" y2="59" gradientUnits="userSpaceOnUse">
<stop stop-color="#606EA3"/>
<stop offset="1" stop-color="#4E4376"/>
</linearGradient>
</defs>
</svg>
